Numix-GalliumOS/22/emblems/emblem-desktop.svg

<?xml version="1.0" encoding="UTF-8" standalone="no"?>
<svg
   xmlns:dc="http://purl.org/dc/elements/1.1/"
   xmlns:cc="http://creativecommons.org/ns#"
   xmlns:rdf="http://www.w3.org/1999/02/22-rdf-syntax-ns#"
   xmlns:svg="http://www.w3.org/2000/svg"
   xmlns="http://www.w3.org/2000/svg"
   xmlns:sodipodi="http://sodipodi.sourceforge.net/DTD/sodipodi-0.dtd"
   xmlns:inkscape="http://www.inkscape.org/namespaces/inkscape"
   width="22"
   height="22"
   viewBox="0 0 22 22"
   id="svg2"
   version="1.1"
   inkscape:version="0.91 r13725"
   sodipodi:docname="emblem-desktop.svg">
  <metadata
     id="metadata12">
    <rdf:RDF>
      <cc:Work
         rdf:about="">
        <dc:format>image/svg+xml</dc:format>
        <dc:type
           rdf:resource="http://purl.org/dc/dcmitype/StillImage" />
      </cc:Work>
    </rdf:RDF>
  </metadata>
  <defs
     id="defs10" />
  <sodipodi:namedview
     pagecolor="#ffffff"
     bordercolor="#666666"
     borderopacity="1"
     objecttolerance="10"
     gridtolerance="10"
     guidetolerance="10"
     inkscape:pageopacity="0"
     inkscape:pageshadow="2"
     inkscape:window-width="1366"
     inkscape:window-height="704"
     id="namedview8"
     showgrid="false"
     inkscape:object-nodes="true"
     inkscape:zoom="1"
     inkscape:cx="10.107606"
     inkscape:cy="10.432734"
     inkscape:window-x="0"
     inkscape:window-y="27"
     inkscape:window-maximized="1"
     inkscape:current-layer="svg2">
    <inkscape:grid
       type="xygrid"
       id="grid4140" />
  </sodipodi:namedview>
  <path
     style="fill:#fff;stroke:#777;stroke-width:.792"
     d="M 43.602273 24 C 43.602273 34.823864 34.823864 43.602273 24 43.602273 C 13.176136 43.602273 4.397727 34.823864 4.397727 24 C 4.397727 13.176136 13.176136 4.397727 24 4.397727 C 34.823864 4.397727 43.602273 13.176136 43.602273 24 Z "
     transform="scale(.45833)"
     id="path4" />
  <path
     style="fill:#427fec;fill-opacity:0.94100001"
     d="M 5 6 L 5 14 L 9 14 L 9 16 L 8 16 L 8 17 L 14 17 L 14 16 L 13 16 L 13 14 L 17 14 L 17 6 L 5 6 z "
     id="path6" />
</svg>

<svg xmlns="http://www.w3.org/2000/svg" viewBox="0 0 22 22">
 <path d="m 43.602 24 c 0 10.824 -8.778 19.602 -19.602 19.602 c -10.824 0 -19.602 -8.778 -19.602 -19.602 c 0 -10.824 8.778 -19.602 19.602 -19.602 c 10.824 0 19.602 8.778 19.602 19.602 Z" transform="scale(.45833)" style="fill:#fff;stroke:#777;stroke-width:0.792"/>
 <path d="m 5 6 l 0 8 l 4 0 l 0 2 l -1 0 l 0 1 l 6 0 l 0 -1 l -1 0 l 0 -2 l 4 0 l 0 -8 l -12 0 z" style="fill:#427fec;fill-opacity:0.941"/>
</svg>
